lib/brands/icons/opsgenie.svg

<svg xmlns="http://www.w3.org/2000/svg" fill="none" aria-hidden="true" viewBox="0 0 48 48"><g id="opsgenie-Icon"><g id="Group"><path id="Vector" fill="url(#paint0_linear_94_16621)" d="M23.9995 23.9659C28.9607 23.9659 32.9825 19.9441 32.9825 14.9829C32.9825 10.0218 28.9607 6 23.9995 6C19.0384 6 15.0166 10.0218 15.0166 14.9829C15.0166 19.9441 19.0384 23.9659 23.9995 23.9659Z"/><path id="Vector_2" fill="url(#paint1_linear_94_16621)" d="M23.2341 41.7807C17.3675 38.0383 12.4884 32.9381 9.00947 26.9115C8.875 26.6699 8.84575 26.3837 8.9286 26.1199C9.01145 25.8561 9.1991 25.638 9.44754 25.5167L16.2502 22.1783C16.7261 21.9463 17.3003 22.1223 17.5644 22.5812C21.0037 28.3456 26.0893 32.9489 32.1667 35.7988C29.9253 38.0571 27.4432 40.0631 24.7649 41.7807C24.2965 42.0731 23.7025 42.0731 23.2341 41.7807Z"/><path id="Vector_3" fill="#2684FF" d="M24.7646 41.7807C30.632 38.0392 35.5113 32.9388 38.9893 26.9115C39.1241 26.6706 39.1541 26.3848 39.0722 26.1211C38.9904 25.8575 38.8038 25.639 38.5562 25.5167L31.7485 22.1783C31.2727 21.9463 30.6984 22.1223 30.4343 22.5812C26.9958 28.3462 21.91 32.9497 15.832 35.7988C18.072 38.0586 20.5543 40.0647 23.2339 41.7807C23.7022 42.0731 24.2963 42.0731 24.7646 41.7807Z"/></g></g><defs><linearGradient id="paint0_linear_94_16621" x1="23.9995" x2="23.9995" y1="8.98592" y2="27.4301" gradientUnits="userSpaceOnUse"><stop stop-color="#2684FF"/><stop offset="0.82" stop-color="#0052CC"/></linearGradient><linearGradient id="paint1_linear_94_16621" x1="18.4708" x2="23.3019" y1="28.2846" y2="38.3956" gradientUnits="userSpaceOnUse"><stop stop-color="#2684FF"/><stop offset="0.62" stop-color="#0052CC"/></linearGradient></defs></svg>

<svg xmlns="http://www.w3.org/2000/svg" fill="none" aria-hidden="true" viewBox="0 0 48 48"><path fill="url(#a)" d="M24 23.966A8.983 8.983 0 1 0 24 6a8.983 8.983 0 0 0 0 17.966Z"/><path fill="url(#b)" d="M23.234 41.78A43.334 43.334 0 0 1 9.01 26.912a1.007 1.007 0 0 1 .438-1.394l6.803-3.339a1.007 1.007 0 0 1 1.314.403A33.63 33.63 0 0 0 32.167 35.8a43.556 43.556 0 0 1-7.402 5.982 1.445 1.445 0 0 1-1.53 0Z"/><path fill="#2684FF" d="M24.765 41.78a43.305 43.305 0 0 0 14.224-14.869 1.007 1.007 0 0 0-.433-1.394l-6.807-3.339a1.007 1.007 0 0 0-1.314.403A33.615 33.615 0 0 1 15.832 35.8a43.306 43.306 0 0 0 7.402 5.982 1.445 1.445 0 0 0 1.53 0Z"/><defs><linearGradient id="a" x1="23.999" x2="23.999" y1="8.986" y2="27.43" gradientUnits="userSpaceOnUse"><stop stop-color="#2684FF"/><stop offset=".82" stop-color="#0052CC"/></linearGradient><linearGradient id="b" x1="18.471" x2="23.302" y1="28.285" y2="38.396" gradientUnits="userSpaceOnUse"><stop stop-color="#2684FF"/><stop offset=".62" stop-color="#0052CC"/></linearGradient></defs></svg>
